X: 5572
T: Bush In Bloom, The
R: reel
M: 4/4
K: Gmajor
|:d2BG AGEF|G2(3Bcd efge|d2BG AGEG|eaag efge|
dcBG AGEF|G2(3Bcd efge|d2BG AGEF|1 GBAF G2Bc:|2 GBAF ~G3z||
g2eg dgeg|g2bg agef|g2gd egdb|agef ~g3z|
bg~g2 agef|g2fg ed(3Bcd|eg~g2 eaba|agef g2af|
gddg egdg|g2bg agef|g2gd egdb|agef ~g3z|
bg~g2 agef|g2fg ed(3Bcd|eg~g2 eaba|agef gded||

